!!!!SEGMENT: pl-sa--258-a-vii-18_habermann-jan-piotr--ista-quam-laeti.krn
!!!cenid: 17xx:292
!!!COM: Habermann, Jan Piotr
!!!COM-rismid: pe30017777
!!!CDT: <1738->1762
!!!CNT:
!!!OTL: Ista quam laeti
!!!PDT:
!!!AGN: Sacred
!!!SMS-siglum: PL-SA
!!!SMS-shelfmark: 258/A VII 18
!!!SMS-shelfwork: W
!!!NIFC-rismid: 1001068027
!!!URL-scan: http://bc.bdsandomierz.pl/dlibra/publication/1773/edition/1741/content
!!!ONB-nifc:
**kern	**dynam	**kern	**dynam	**kern	**dynam	**kern	**dynam	**kern	**text	**text
*part5	*part5	*part4	*part4	*part3	*part3	*part2	*part2	*part1	*part1	*part1
*staff5	*	*staff4	*	*staff3	*	*staff2	*	*staff1	*staff1	*staff1
*Iorgan	*	*Ivioln	*	*Ivioln	*	*Ivioln	*	*Ivox	*	*
*I"Organo.	*	*I"Violino Tertio. Viola Transposita	*	*I"Violino Secundo.	*	*I"Violino Primo.	*	*I"Canto Solo.	*	*
*I'org	*	*I'vl 3	*	*I'vl 2	*	*I'vl 1	*	*I'S solo	*	*
*group3	*	*group2	*	*group2	*	*group2	*	*group1	*	*
*clefF4	*	*clefG2	*	*clefG2	*	*clefG2	*	*clefC1	*	*
*k[b-]	*	*k[b-]	*	*k[b-]	*	*k[b-]	*	*k[b-]	*	*
*d:	*	*d:	*	*d:	*	*d:	*	*d:	*	*
*M4/4	*	*M4/4	*	*M4/4	*	*M4/4	*	*M4/4	*	*
*met(c)	*	*met(c)	*	*met(c)	*	*met(c)	*	*met(c)	*	*
=1	=1	=1	=1	=1	=1	=1	=1	=1	=1	=1
*2\right	*	*2\right	*	*2\right	*	*2\right	*	*2\right	*	*
!LO:TX:a:t=P:problem: 4\right	!	!LO:TX:b:t=Ista, quam	!	!	!	!LO:TX:b:t=Istaquam.	!	!LO:TX:a:t=3	!	!
!LO:TX:a:t=Allegro.	!	!LO:TX:a:t=Allegro.	!	!LO:TX:a:t=Allegro.	!	!LO:TX:a:t=Allegro.	!	!LO:TX:a:t=Allegro.	!	!
4F\	.	4f/	.	8.fT/L	.	8.fT/L	.	0r	.	.
.	.	.	.	32e/LL	.	32e/LL	.	.	.	.
.	.	.	.	32f/JJJ	.	32f/JJJ	.	.	.	.
!	!	!	!	!LO:TX:a:t=P:problem:4\right	!	!LO:TX:a:t=P:problem:4\right	!	!	!	!
8r	.	8r	.	4.ff\	.	[4ff\	.	.	.	.
!LO:TX:a:t=P:problem:8\right	!	!	!	!	!	!	!	!	!	!
8D\	.	8d/	.	.	.	.	.	.	.	.
!	!	!	!	!	!	!LO:TX:a:t=P:problem:8\right	!	!	!	!
4BB-/	.	4B-/	.	.	.	8ff\L]	.	.	.	.
!	!	!	!	!LO:TX:a:t=P:problem:16\right	!	!LO:TX:a:t=P:problem:16\right	!	!	!	!
.	.	.	.	16ee\LL	.	16ee\L	.	.	.	.
.	.	.	.	16ff\JJ	.	16ff\JJ	.	.	.	.
4C/	.	4c/	.	16gg\LL	.	16gg\LL	.	.	.	.
.	.	.	.	16ee\	.	16ee\	.	.	.	.
.	.	.	.	16cc\	.	16cc\	.	.	.	.
.	.	.	.	16b-\JJ	.	16b-\JJ	.	.	.	.
=2	=2	=2	=2	=2	=2	=2	=2	=2	=2	=2
4F\	.	4f/	.	8a/L	.	8a/L	.	.	.	.
.	.	.	.	8f/J	.	8f/J	.	.	.	.
!	!	!	!	!	!LO:DY:t=piano	!	!LO:DY:t=piano	!	!	!
8r	.	8r	.	4.ff\	p	[4ff\	p	.	.	.
!	!LO:DY:t=piano	!	!LO:DY:t=piano	!	!	!	!	!	!	!
8D\	p	8d/	p	.	.	.	.	.	.	.
4BB-/	.	4B-/	.	.	.	8ff\L]	.	.	.	.
.	.	.	.	16ee\LL	.	16ee\L	.	.	.	.
.	.	.	.	16ff\JJ	.	16ff\JJ	.	.	.	.
4C/	.	4c/	.	16gg\LL	.	16gg\LL	.	.	.	.
.	.	.	.	16ee\	.	16ee\	.	.	.	.
.	.	.	.	16cc\	.	16cc\	.	.	.	.
.	.	.	.	16b-\JJ	.	16b-\JJ	.	.	.	.
=3	=3	=3	=3	=3	=3	=3	=3	=3	=3	=3
4F\	.	4f/	.	8a/L	.	8a/L	.	1r	.	.
.	.	.	.	8f/J	.	8f/J	.	.	.	.
!	!	!	!	!	!LO:DY:t=forte	!	!LO:DY:t=forte	!	!	!
8r	.	8r	.	4.ff\	f	[4ff\	f	.	.	.
!	!LO:DY:t=forte	!	!LO:DY:t=fort	!	!	!	!	!	!	!
8D\	f	8d/	f	.	.	.	.	.	.	.
4BB-/	.	4B-/	.	.	.	8ff\L]	.	.	.	.
.	.	.	.	16ee\LL	.	16ee\L	.	.	.	.
.	.	.	.	16dd\JJ	.	16dd\JJ	.	.	.	.
8C/L	.	8c/L	.	16cc\LL	.	16cc/LL	.	.	.	.
.	.	.	.	16b-\	.	16b-/	.	.	.	.
8E/J	.	8e/J	.	16a\	.	16a/	.	.	.	.
.	.	.	.	16g\JJ	.	16g/JJ	.	.	.	.
=4	=4	=4	=4	=4	=4	=4	=4	=4	=4	=4
1F;	.	1f;	.	1f;	.	1f;	.	1r;	.	.
=5	=5	=5	=5	=5	=5	=5	=5	=5	=5	=5
!	!	!	!	!	!	!	!	!LO:TX:a:t=6	!	!
!	!	!LO:TX:a:t=adagio	!	!LO:TX:a:t=adagio.	!	!LO:TX:a:t=adagio	!	!LO:TX:a:t=Adagio	!	!
00r	.	8f/L	.	8a/L	.	8dd\L	.	00r	.	.
.	.	16f/L	.	16a/L	.	16dd\L	.	.	.	.
.	.	16f/JJ	.	16a/JJ	.	16dd\JJ	.	.	.	.
.	.	8f/L	.	8a/L	.	8dd\L	.	.	.	.
.	.	8f/J	.	8a/J	.	8dd\J	.	.	.	.
.	.	.	.	.	.	8qqcc/	.	.	.	.
.	.	8f/L	.	4g/	.	8bn\	.	.	.	.
.	.	8e/	.	.	.	4cc\	.	.	.	.
.	.	8c/J	.	4r	.	.	.	.	.	.
!	!	!	!	!	!	!LO:TX:a:t=SIC:custos gg	!	!	!	!
.	.	8r	.	.	.	[8gg\	.	.	.	.
!	!	!	!	!	!	!LO:LB:g=original	!	!	!	!
=6	=6	=6	=6	=6	=6	=6	=6	=6	=6	=6
.	.	4c/	.	8r	.	8gg\L]	.	.	.	.
.	.	.	.	16g/LL	.	16b-X\L	.	.	.	.
.	.	.	.	16g/JJ	.	16b-\JJ	.	.	.	.
.	.	8r	.	8g/L	.	8b-\L	.	.	.	.
!	!	!	!	!LO:TX:a:t=SIC: custos g	!	!	!	!	!	!
.	.	8c/	.	8g/J	.	8b-\J	.	.	.	.
!	!	!	!	!LO:LB:g=original	!	!	!	!	!	!
.	.	8e`/L	.	8g/L	.	8b-\L	.	.	.	.
.	.	8f`/J	.	8f/J	.	8a\J	.	.	.	.
.	.	8r	.	8r	.	4cc\	.	.	.	.
.	.	8f/	.	8a/	.	.	.	.	.	.
=7	=7	=7	=7	=7	=7	=7	=7	=7	=7	=7
!	!	!	!	!	!	!LO:TX:a:t=P:problem:32\right	!	!	!	!
.	.	4B-/	.	4b-/	.	(32dd\KLL	.	.	.	.
.	.	.	.	.	.	16.cc\)	.	.	.	.
.	.	.	.	.	.	(32b-\K	.	.	.	.
.	.	.	.	.	.	16.a\JJ)	.	.	.	.
.	.	8r	.	8r	.	8g/L	.	.	.	.
.	.	[8Bn/	.	8d/	.	8f/J	.	.	.	.
!	!	!LO:LB:g=original	!	!	!	!	!	!	!	!
.	.	8B/L]	.	4G/	.	8f`/L	.	.	.	.
.	.	8c`/J	.	.	.	8e`/J	.	.	.	.
.	.	4r	.	4r	.	[4b-\	.	.	.	.
=8	=8	=8	=8	=8	=8	=8	=8	=8	=8	=8
.	.	8r	.	8r	.	8.b-\L]	.	.	.	.
.	.	8c/L	.	8e/L	.	.	.	.	.	.
.	.	.	.	.	.	32cc`\LL	.	.	.	.
.	.	.	.	.	.	32dd`\JJJ	.	.	.	.
.	.	8c/	.	8e/	.	8cc\L	.	.	.	.
.	.	8e/J	.	8g/J	.	8b-\J	.	.	.	.
.	.	2f/	.	16a/LL	.	16a\LL	.	.	.	.
.	.	.	.	16a/	.	16ff'\	.	.	.	.
.	.	.	.	16a/	.	16ff'\	.	.	.	.
.	.	.	.	16a/JJ	.	16ff'\JJ	.	.	.	.
.	.	.	.	16a/LL	.	16ff'\LL	.	.	.	.
.	.	.	.	16a-X/	.	16ff'\	.	.	.	.
.	.	.	.	16a-/	.	16ff'\	.	.	.	.
.	.	.	.	16a-/JJ	.	16ff'\JJ	.	.	.	.
=9	=9	=9	=9	=9	=9	=9	=9	=9	=9	=9
1r	.	4cc\	.	2g/	.	16ff'\LL	.	0r	.	.
.	.	.	.	.	.	16ee'\	.	.	.	.
.	.	.	.	.	.	16ee'\	.	.	.	.
.	.	.	.	.	.	16ee'\JJ	.	.	.	.
.	.	8r	.	.	.	16ee'\LL	.	.	.	.
.	.	.	.	.	.	16b-'\	.	.	.	.
.	.	8c/	.	.	.	16b-'\	.	.	.	.
.	.	.	.	.	.	16b-'\JJ	.	.	.	.
.	.	4f/	.	4f/	.	8.a\L	.	.	.	.
.	.	.	.	.	.	16cc\Jk	.	.	.	.
.	.	8r	.	8r	.	8f/L	.	.	.	.
.	.	8Bn/	.	8d/	.	8a-X/J	.	.	.	.
=10	=10	=10	=10	=10	=10	=10	=10	=10	=10	=10
1r;	.	1c;	.	1e;	.	1g;	.	.	.	.
!	!	!	!	!	!	!LO:LB:g=original	!	!	!	!
=11	=11	=11	=11	=11	=11	=11	=11	=11	=11	=11
!	!	!	!	!	!	!	!	!LO:TX:a:t=15	!	!
!LO:TX:a:t=Allegro.	!	!LO:TX:a:t=allegro	!	!LO:TX:a:t=allegro.	!	!LO:TX:a:t=allegro.	!	!LO:TX:a:t=allegro.	!	!
8C/L	.	8g/L	.	16ee\LL	.	16gg\LL	.	00r	.	.
.	.	.	.	16ee\	.	16gg\	.	.	.	.
8C/	.	8g/	.	16ee\	.	16gg\	.	.	.	.
.	.	.	.	16ee\JJ	.	16gg\JJ	.	.	.	.
8C/	.	8g/	.	16ee\LL	.	16cc\LL	.	.	.	.
.	.	.	.	16ee\	.	16cc\	.	.	.	.
8C/J	.	8g/J	.	16ee\	.	16cc\	.	.	.	.
.	.	.	.	16ee\JJ	.	16cc\JJ	.	.	.	.
8C/L	.	8f/L	.	16ff\LL	.	16aa\LL	.	.	.	.
.	.	.	.	16ff\	.	16aa\	.	.	.	.
8C/	.	8f/	.	16ff\	.	16aa\	.	.	.	.
.	.	.	.	16ff\JJ	.	16aa\JJ	.	.	.	.
8C/	.	8a/	.	16ff\LL	.	16cc\LL	.	.	.	.
.	.	.	.	16ff\	.	16cc\	.	.	.	.
8C/J	.	8a/J	.	16ff\	.	16cc\	.	.	.	.
.	.	.	.	16ff\JJ	.	16cc\JJ	.	.	.	.
!	!	!	!	!LO:LB:g=original	!	!	!	!	!	!
=12	=12	=12	=12	=12	=12	=12	=12	=12	=12	=12
8C\L	.	8g/L	.	16gg\LL	.	16bb-\LL	.	.	.	.
.	.	.	.	16gg\	.	16bb-\	.	.	.	.
8E\J	.	8e/	.	16gg\	.	16bb-\	.	.	.	.
.	.	.	.	16gg\JJ	.	16bb-\JJ	.	.	.	.
8F\L	.	8f/	.	16ff\LL	.	16aa\LL	.	.	.	.
.	.	.	.	16ff\	.	16aa\	.	.	.	.
!LO:TX:a:t=SIC: custos c	!	!	!	!	!	!	!	!	!	!
8A\J	.	8c/J	.	16ff\	.	16aa\	.	.	.	.
.	.	.	.	16ff\JJ	.	16aa\JJ	.	.	.	.
!LO:LB:g=original	!	!	!	!LO:TX:a:t=P:problem:8\right	!	!	!	!	!	!
4c\	.	8c/L	.	8ff\L	.	8aa`\L	.	.	.	.
.	.	16c/L	.	8ee\J	.	8gg`\J	.	.	.	.
.	.	16d/JJ	.	.	.	.	.	.	.	.
4r	.	8e/L	.	4r	.	8r	.	.	.	.
!	!	!	!	!	!	!	!LO:DY:t=piano	!	!	!
.	.	8c/J	.	.	.	16ee\LL	p	.	.	.
.	.	.	.	.	.	16ff\JJ	.	.	.	.
=13	=13	=13	=13	=13	=13	=13	=13	=13	=13	=13
!	!LO:DY:t=piano	!	!LO:DY:t=piano	!	!LO:DY:t=piano	!	!	!	!	!
8C/L	p	8g/L	p	16ee\LL	p	16gg\LL	.	.	.	.
.	.	.	.	16ee\	.	16gg\	.	.	.	.
8C/	.	8g/	.	16ee\	.	16gg\	.	.	.	.
.	.	.	.	16ee\JJ	.	16gg\JJ	.	.	.	.
8C/	.	8g/	.	16ee\LL	.	16cc\LL	.	.	.	.
.	.	.	.	16ee\	.	16cc\	.	.	.	.
8C/J	.	8g/J	.	16ee\	.	16cc\	.	.	.	.
.	.	.	.	16ee\JJ	.	16cc\JJ	.	.	.	.
8C/L	.	8f/L	.	16ff\LL	.	16aa-X\LL	.	.	.	.
.	.	.	.	16ff\	.	16aa-\	.	.	.	.
8C/	.	8f/	.	16ff\	.	16aa-\	.	.	.	.
.	.	.	.	16ff\JJ	.	16aa-\JJ	.	.	.	.
8C/	.	8a-X/	.	16ff\LL	.	16cc\LL	.	.	.	.
.	.	.	.	16ff\	.	16cc\	.	.	.	.
8C/J	.	8a-/J	.	16ff\	.	16cc\	.	.	.	.
.	.	.	.	16ff\JJ	.	16cc\JJ	.	.	.	.
=14	=14	=14	=14	=14	=14	=14	=14	=14	=14	=14
8C\L	.	8g/L	.	16gg\LL	.	16bb-\LL	.	.	.	.
.	.	.	.	16gg\	.	16bb-\	.	.	.	.
8E\	.	8e/	.	16gg\	.	16bb-\	.	.	.	.
.	.	.	.	16gg\JJ	.	16bb-\JJ	.	.	.	.
8F\	.	8f/	.	16ff\LL	.	16aa-X\LL	.	.	.	.
.	.	.	.	16ff\	.	16aa-\	.	.	.	.
!	!	!LO:TX:a:t=SIC:custos c	!	!	!	!	!	!	!	!
8A-X\J	.	8c/J	.	16ff\	.	16aa-\	.	.	.	.
.	.	.	.	16ff\JJ	.	16aa-\JJ	.	.	.	.
!	!	!LO:LB:g=original	!	!	!	!	!	!	!	!
4c\	.	8c/L	.	8ff\L	.	8aa-`\L	.	.	.	.
.	.	16c/L	.	8ee\J	.	8gg`\J	.	.	.	.
.	.	16d/JJ	.	.	.	.	.	.	.	.
8r	.	8e/L	.	8r	.	8r	.	.	.	.
!	!LO:DY:t=fort	!	!	!	!LO:DY:t=fort.	!	!LO:DY:t=for.	!	!	!
8C/	f	8c/J	.	8ee\	f	8gg\	f	.	.	.
!	!	!	!	!	!	!LO:LB:g=original	!	!	!	!
=15	=15	=15	=15	=15	=15	=15	=15	=15	=15	=15
!	!	!	!LO:DY:t=fort.	!	!	!	!	!	!	!
8F\L	.	8f/L	f	16ff\LL	.	[2aan\	.	00r	.	.
.	.	.	.	16ee\	.	.	.	.	.	.
8F\	.	8f/	.	16dd\	.	.	.	.	.	.
.	.	.	.	16cc\JJ	.	.	.	.	.	.
8F\	.	8f/	.	16bn\LL	.	.	.	.	.	.
.	.	.	.	16a\	.	.	.	.	.	.
8F\J	.	8f/J	.	16g\	.	.	.	.	.	.
.	.	.	.	16ee\JJ	.	.	.	.	.	.
8D\L	.	8d/L	.	2ff\	.	16aa\LL]	.	.	.	.
.	.	.	.	.	.	16gg\	.	.	.	.
8D\	.	8d/	.	.	.	16ff\	.	.	.	.
.	.	.	.	.	.	16ee\JJ	.	.	.	.
8D\	.	8d/	.	.	.	16dd\LL	.	.	.	.
.	.	.	.	.	.	16cc\	.	.	.	.
8D\J	.	8d/J	.	.	.	16bn\	.	.	.	.
.	.	.	.	.	.	16ff\JJ	.	.	.	.
=16	=16	=16	=16	=16	=16	=16	=16	=16	=16	=16
8E\L	.	8e/L	.	16ee\LL	.	[2gg\	.	.	.	.
.	.	.	.	16dd\	.	.	.	.	.	.
8E\	.	8e/	.	16cc\	.	.	.	.	.	.
.	.	.	.	16bn\JJ	.	.	.	.	.	.
!	!	!	!	!LO:TX:a:t=P:problem: mixed beam	!	!	!	!	!	!
8E\	.	8e/	.	16a/LL	.	.	.	.	.	.
.	.	.	.	16g/	.	.	.	.	.	.
8E\J	.	8e/J	.	16f/	.	.	.	.	.	.
.	.	.	.	16dd\JJ	.	.	.	.	.	.
!	!	!	!	!LO:LB:g=original	!	!	!	!	!	!
8C/L	.	8c/L	.	2ee\	.	16gg\LL]	.	.	.	.
.	.	.	.	.	.	16ff\	.	.	.	.
8C/	.	8c/	.	.	.	16ee\	.	.	.	.
.	.	.	.	.	.	16dd\JJ	.	.	.	.
8C/	.	8c/	.	.	.	16cc\LL	.	.	.	.
.	.	.	.	.	.	16bn\	.	.	.	.
8C/J	.	8c/J	.	.	.	16a\	.	.	.	.
.	.	.	.	.	.	16ee\JJ	.	.	.	.
=17	=17	=17	=17	=17	=17	=17	=17	=17	=17	=17
4D/	.	4d/	.	(32ddT\LLL	.	(32ffT\LLL	.	.	.	.
.	.	.	.	32cc\JJ)	.	32ee\JJ)	.	.	.	.
.	.	.	.	8.dd\J	.	8.ff\J	.	.	.	.
4C/	.	8r	.	(32ddT\LLL	.	(32ffT\LLL	.	.	.	.
.	.	.	.	32cc\JJ)	.	32ee\JJ)	.	.	.	.
.	.	.	.	8.dd\J	.	8.ff\J	.	.	.	.
.	.	8c/	.	.	.	.	.	.	.	.
4BBn/	.	8r	.	(32ddT\LLL	.	(32ffT\LLL	.	.	.	.
.	.	.	.	32cc\JJ)	.	32ee\JJ)	.	.	.	.
.	.	.	.	8.dd\J	.	8.ff\J	.	.	.	.
.	.	8Bn/	.	.	.	.	.	.	.	.
4AA/	.	8r	.	(32ddT\LLL	.	(32ffT\LLL	.	.	.	.
.	.	.	.	32cc\JJ)	.	32ee\JJ)	.	.	.	.
.	.	.	.	8.dd\J	.	8.ff\J	.	.	.	.
.	.	8A/	.	.	.	.	.	.	.	.
=18	=18	=18	=18	=18	=18	=18	=18	=18	=18	=18
.	.	.	.	8qqee/	.	8qqgg/	.	.	.	.
8GG`/L	.	8Bn`/L	.	8dd`\L	.	8ff`\L	.	.	.	.
8C`/J	.	8c`/J	.	8cc`\J	.	8ee`\J	.	.	.	.
4r	.	4r	.	4r	.	4r	.	.	.	.
2r	.	2r	.	8g/	.	8ee-X\	.	.	.	.
.	.	.	.	4f/	.	4dd\	.	.	.	.
.	.	.	.	8e-X/	.	8cc\	.	.	.	.
!LO:LB:g=original	!	!	!	!	!	!	!	!	!	!
=19	=19	=19	=19	=19	=19	=19	=19	=19	=19	=19
!	!	!	!	!	!	!LO:TX:a:t=P:problem: mixed beam	!	!	!	!
4r	.	4r	.	4d/	.	8bn\L	.	00r	.	.
.	.	.	.	.	.	8dd\	.	.	.	.
8r	.	8r	.	8r	.	8G/J	.	.	.	.
!	!	!	!	!	!	!LO:TX:a:t=SIC:custos e	!	!	!	!
8F`\	.	8f`/	.	8f`/	.	8f`/	.	.	.	.
!	!	!	!	!	!	!LO:LB:g=original	!	!	!	!
8E`\L	.	8e`/L	.	8e`/L	.	8e`/L	.	.	.	.
8A`\	.	8a`/	.	8a`/	.	8a`/	.	.	.	.
8F`\	.	8f`/	.	8f`/	.	8f`/	.	.	.	.
8G`\J	.	8g`/J	.	8g`/J	.	8g`/J	.	.	.	.
=20	=20	=20	=20	=20	=20	=20	=20	=20	=20	=20
16C/LL	.	16c/LL	.	4c/	.	4c/	.	.	.	.
16C/	.	16e/	.	.	.	.	.	.	.	.
16C/	.	16e/	.	.	.	.	.	.	.	.
16C/JJ	.	16e/JJ	.	.	.	.	.	.	.	.
16C/LL	.	16e/LL	.	4r	.	4r	.	.	.	.
16C/	.	16e/	.	.	.	.	.	.	.	.
16C/	.	16e/	.	.	.	.	.	.	.	.
!	!	!LO:TX:a:t=SIC:custos e	!	!	!	!	!	!	!	!
16C/JJ	.	16e/JJ	.	.	.	.	.	.	.	.
16C/LL	.	16e/LL	.	2r	.	8.b-T\L	.	.	.	.
16C/	.	16e/	.	.	.	.	.	.	.	.
16C/	.	16e/	.	.	.	.	.	.	.	.
16C/JJ	.	16e/JJ	.	.	.	(32a\LL	.	.	.	.
.	.	.	.	.	.	32b-\JJJ)	.	.	.	.
16C/LL	.	16e/LL	.	.	.	8.eet\L	.	.	.	.
16C/	.	16e/	.	.	.	.	.	.	.	.
16C/	.	16e/	.	.	.	.	.	.	.	.
16C/JJ	.	16e/JJ	.	.	.	(32dd\LL	.	.	.	.
.	.	.	.	.	.	32ee\JJJ)	.	.	.	.
=21	=21	=21	=21	=21	=21	=21	=21	=21	=21	=21
16C/LL	.	16e/LL	.	8cc\	.	8gg\	.	.	.	.
16C/	.	16e/	.	.	.	.	.	.	.	.
16C/	.	16e/	.	4g/	.	8r	.	.	.	.
16C/JJ	.	16e/JJ	.	.	.	.	.	.	.	.
16C/LL	.	16e/LL	.	.	.	4r	.	.	.	.
16C/	.	16e/	.	.	.	.	.	.	.	.
16C/	.	16e/	.	8e/	.	.	.	.	.	.
16C/JJ	.	16e/JJ	.	.	.	.	.	.	.	.
16C/LL	.	16f/LL	.	8c/	.	8.at\L	.	.	.	.
16C/	.	16f/	.	.	.	.	.	.	.	.
16C/	.	16f/	.	8r	.	.	.	.	.	.
16C/JJ	.	16f/JJ	.	.	.	(32g\LL	.	.	.	.
.	.	.	.	.	.	32a\JJJ)	.	.	.	.
16C/LL	.	16f/LL	.	4r	.	8.ccT\L	.	.	.	.
16C/	.	16f/	.	.	.	.	.	.	.	.
16C/	.	16f/	.	.	.	.	.	.	.	.
16C/JJ	.	16f/JJ	.	.	.	(32b-\LL	.	.	.	.
.	.	.	.	.	.	32cc\JJJ)	.	.	.	.
=22	=22	=22	=22	=22	=22	=22	=22	=22	=22	=22
!LO:TX:a:t=P:problem: 16\right	!	!	!	!	!	!	!	!	!	!
16F\LL	.	16f/LL	.	8ff\	.	8ff`\	.	.	.	.
16F\	.	16f/	.	.	.	.	.	.	.	.
16F\	.	16f/	.	4cc\	.	8r	.	.	.	.
16F\JJ	.	16f/JJ	.	.	.	.	.	.	.	.
16F\LL	.	16f/LL	.	.	.	4r	.	.	.	.
16F\	.	16f/	.	.	.	.	.	.	.	.
16F\	.	16f/	.	8a\	.	.	.	.	.	.
16F\JJ	.	16f/JJ	.	.	.	.	.	.	.	.
4F\	.	4f/	.	4f/	.	4r	.	.	.	.
8r	.	8r	.	8r	.	8r	.	.	.	.
8AA`/	.	8A`/	.	8a`/	.	8a/	.	.	.	.
!	!	!	!	!LO:LB:g=original	!	!	!	!	!	!
=23	=23	=23	=23	=23	=23	=23	=23	=23	=23	=23
4BB-`/	.	4B-`/	.	4b-`\	.	4b-`\	.	0r	.	.
4C`/	.	4c`/	.	4cc`\	.	4cc`\	.	.	.	.
4D`/	.	4d/	.	4dd`\	.	4dd`\	.	.	.	.
8r	.	8r	.	8r	.	8r	.	.	.	.
8AA`/	.	8A`/	.	8a`\	.	8a`/	.	.	.	.
!LO:LB:g=original	!	!	!	!	!	!	!	!	!	!
=24	=24	=24	=24	=24	=24	=24	=24	=24	=24	=24
4BB-`/	.	4B-`/	.	4b-`\	.	4b-`\	.	.	.	.
4C`/	.	4c`/	.	4cc`\	.	4cc`\	.	.	.	.
4r	.	4r	.	2bn\	.	4.dd\	.	.	.	.
8r	.	8r	.	.	.	.	.	.	.	.
8G\	.	8d/	.	.	.	8ff\	.	.	.	.
=25	=25	=25	=25	=25	=25	=25	=25	=25	=25	=25
1C;	.	1G;	.	1cc;	.	1ee;	.	1r;	.	.
!	!	!	!	!	!	!LO:LB:g=original	!	!	!	!
=26	=26	=26	=26	=26	=26	=26	=26	=26	=26	=26
!LO:TX:a:t=adagio	!	!LO:TX:a:t=adagio	!	!LO:TX:a:t=adagio	!	!LO:TX:a:t=adagio.	!	!LO:TX:a:t=adagio	!	!
2r	.	2r	.	2r	.	(16ff\LL	.	0r	.	.
.	.	.	.	.	.	16dd\)	.	.	.	.
.	.	.	.	.	.	(16cc\	.	.	.	.
.	.	.	.	.	.	16bn\JJ)	.	.	.	.
.	.	.	.	.	.	(16cc\LL	.	.	.	.
.	.	.	.	.	.	16dd\)	.	.	.	.
.	.	.	.	.	.	(16b-X\	.	.	.	.
.	.	.	.	.	.	16g\JJ)	.	.	.	.
8r	.	4f/	.	4.f/	.	4f/	.	.	.	.
8d\L	.	.	.	.	.	.	.	.	.	.
.	.	.	.	.	.	(8qqa/	.	.	.	.
8B-\	.	8r	.	.	.	4gT/)	.	.	.	.
8c\J	.	8c/	.	8et/	.	.	.	.	.	.
=27	=27	=27	=27	=27	=27	=27	=27	=27	=27	=27
!	!	!	!	!	!	!LO:TX:a:t=P:problem: mixed beam	!	!	!	!
2r	.	2r	.	4f/	.	(16f/LL	.	.	.	.
.	.	.	.	.	.	16dd\)	.	.	.	.
.	.	.	.	.	.	(16cc\	.	.	.	.
.	.	.	.	.	.	16bn\JJ)	.	.	.	.
.	.	.	.	4r	.	(16cc\LL	.	.	.	.
.	.	.	.	.	.	16dd\)	.	.	.	.
.	.	.	.	.	.	(16b-X\	.	.	.	.
.	.	.	.	.	.	16g\JJ)	.	.	.	.
8r	.	4r	.	4f/	.	4f/	.	.	.	.
8d\L	.	.	.	.	.	.	.	.	.	.
.	.	.	.	.	.	(8qqa/	.	.	.	.
8B-\	.	8r	.	4et/	.	4gT/)	.	.	.	.
8c\J	.	8c/	.	.	.	.	.	.	.	.
=28	=28	=28	=28	=28	=28	=28	=28	=28	=28	=28
4F\	.	4c/	.	4f/	.	8f/L	.	2r	.	.
.	.	.	.	.	.	8c/J	.	.	.	.
4r	.	4r	.	4r	.	4f,/	.	.	.	.
!	!LO:DY:t=piano	!	!LO:DY:t=piano	!	!LO:DY:t=piano	!	!LO:DY:t=piano	!	!	!
8F\L	p	8c/L	p	8a/L	p	4cc\	p	4cc\	I-	Ni-
8F\	.	8c/	.	8a/	.	.	.	.	.	.
.	.	.	.	.	.	8qqee/	.	8qqee/	.	.
!	!	!	!	!	!	!	!	!LO:TX:a:t=P:problem:8\right	!	!
8F\	.	8c/	.	8a/	.	8ff\L	.	8ff\	-sta,	-miſ
8F\J	.	8c/J	.	8a/J	.	8ff\J	.	8ff\	quam	fe-
=29	=29	=29	=29	=29	=29	=29	=29	=29	=29	=29
.	.	.	.	.	.	8qqgg/	.	8qqgg/	.	.
8C/L	.	8c/L	.	8a/L	.	4ffT\	.	4ffT\	lae-	-li-
8C/	.	8c/	.	8g/	.	.	.	.	.	.
8C/	.	8c/	.	8g/	.	4ee\	.	4ee\	-ti	-ces,
8C/J	.	8c/J	.	8g/J	.	.	.	.	.	.
8C\L	.	8e/L	.	8g/L	.	(16gg\LL	.	8.gg\	co-	o!
.	.	.	.	.	.	16ff\)	.	.	.	.
8C\	.	8e/	.	8g/	.	(16ee\	.	.	.	.
!	!	!	!	!	!	!	!	!LO:TX:a:t=P:problem:16\right	!	!
.	.	.	.	.	.	16dd\JJ)	.	16b-\	-li-	ni-
8C\	.	8e/	.	8g/	.	8cc\L	.	8b-\	-mus	-mis.
!	!	!	!	!	!	!	!	!LO:TX:a:t=SIC:custos b	!	!
8E\J	.	8e/J	.	8g/J	.	[8b-X\J	.	8b-\	So-	Be-
!	!	!	!	!	!	!	!	!LO:LB:g=original	!	!
=30	=30	=30	=30	=30	=30	=30	=30	=30	=30	=30
.	.	.	.	.	.	8qqcc/	.	.	.	.
8E\L	.	8c/L	.	8g/L	.	8b-\L]	.	8b-\	-ro-	-a-
8F\	.	8c/	.	8a/	.	8a`\J	.	8a\	-res!	-ti,
!	!	!	!	!	!	!LO:TX:a:t=SIC:custos dd	!	!	!	!
8F\	.	8c/	.	8a/	.	4r	.	4r	.	.
8F\J	.	8c/J	.	8a/J	.	.	.	.	.	.
!	!	!	!	!	!	!LO:LB:g=original	!	!LO:TX:a:t=P:problem:4.\right	!	!
8F\L	.	8f/L	.	8b-\L	.	[4dd\	.	4.dd\	co-	car-
8F\	.	8f/	.	8b-\	.	.	.	.	.	.
8F\	.	8f/	.	8b-\	.	8dd\L]	.	.	.	.
8F\J	.	8f/J	.	8b-\J	.	(16cc\L	.	(16cc\LL	-li-	-mi-
.	.	.	.	.	.	16b-\JJ)	.	16b-\JJ)	.	.
!LO:LB:g=original	!	!	!	!	!	!	!	!	!	!
=31	=31	=31	=31	=31	=31	=31	=31	=31	=31	=31
8F\L	.	8f/L	.	8a/L	.	2a/	.	4.a\	-mus	-na
8F\	.	8f/	.	8a/	.	.	.	.	.	.
8F\	.	8f/	.	8a/	.	.	.	.	.	.
!	!	!	!	!LO:TX:a:t=SIC:custos a	!	!	!	!	!	!
8F\J	.	8f/J	.	8a/J	.	.	.	8a\	So-	ca-
!	!	!	!	!LO:LB:g=original	!	!	!	!	!	!
8F\L	.	8f/L	.	8a/L	.	2ff\	.	2ff\	-ro-	-nen-
8F\	.	8f/	.	8a/	.	.	.	.	.	.
8F\	.	8f/	.	8a/	.	.	.	.	.	.
8F\J	.	8f/J	.	8a/J	.	.	.	.	.	.
=32	=32	=32	=32	=32	=32	=32	=32	=32	=32	=32
8G\L	.	8g/L	.	8a/L	.	2ffT\	.	2ffT\	.	-tes
8G\	.	8G/	.	8bn/	.	.	.	.	.	.
8G\	.	8G/	.	8b/	.	.	.	.	.	.
8G\J	.	8G/J	.	8b/J	.	.	.	.	.	.
8G\L	.	8G/L	.	16cc\LL	.	16ee\LL	.	2ee\	.	De-
.	.	.	.	16ee\	.	16gg\	.	.	.	.
8G\	.	8G/	.	16cc\	.	16ee\	.	.	.	.
.	.	.	.	16ee\JJ	.	16gg\JJ	.	.	.	.
8G\	.	8G/	.	16cc\LL	.	16ee\LL	.	.	.	.
.	.	.	.	16ee\	.	16gg\	.	.	.	.
8G\J	.	8G/J	.	16cc\	.	16ee\	.	.	.	.
.	.	.	.	16ee\JJ	.	16gg\JJ	.	.	.	.
=33	=33	=33	=33	=33	=33	=33	=33	=33	=33	=33
8G\L	.	8G/L	.	16bn\LL	.	16dd\LL	.	2ff\	.	-o,
.	.	.	.	16dd\	.	16ff\	.	.	.	.
8G\	.	8G/	.	16b\	.	16dd\	.	.	.	.
.	.	.	.	16dd\JJ	.	16ff\JJ	.	.	.	.
8G\	.	8G/	.	16b\LL	.	16dd\LL	.	.	.	.
.	.	.	.	16dd\	.	16ff\	.	.	.	.
8G\J	.	8G/J	.	16b\	.	16dd\	.	.	.	.
.	.	.	.	16dd\JJ	.	16ff\JJ	.	.	.	.
4C/	.	4c/	.	8cc\L	.	8ee\L	.	8ee\L	.	De-
.	.	.	.	8ff\J	.	8aa\J	.	8aa\J	.	.
4r	.	4r	.	16ee\LL	.	16gg\LL	.	16gg\LL	.	-o
.	.	.	.	16dd\	.	16ff\	.	16ff\	.	.
.	.	.	.	16cc\	.	16ee\	.	16ee\	.	.
.	.	.	.	16bn\JJ	.	16dd\JJ	.	16dd\JJ	.	.
=34	=34	=34	=34	=34	=34	=34	=34	=34	=34	=34
2r	.	1r	.	4cc\	.	4cc\	.	2cc\	.	no-
.	.	.	.	4r	.	4r	.	.	.	.
!LO:TX:a:t=P:problem: mixed beam	!	!	!	!	!	!	!	!	!	!
8G\L	.	.	.	2r	.	2r	.	2ddT\	.	.
8F\	.	.	.	.	.	.	.	.	.	.
8G\	.	.	.	.	.	.	.	.	.	.
8GG/J	.	.	.	.	.	.	.	.	.	.
=35	=35	=35	=35	=35	=35	=35	=35	=35	=35	=35
!	!LO:DY:t=forte	!	!LO:DY:t=fort	!	!LO:DY:t=fort	!	!LO:DY:t=forte	!LO:TX:a:t=P:problem:4\right	!	!
8C/L	f	8g/L	f	2cc\	f	2ee\	f	4cc\	-res!	-stro.
8C/	.	8g/	.	.	.	.	.	.	.	.
8C/	.	8g/	.	.	.	.	.	4r	.	.
8C/J	.	8g/J	.	.	.	.	.	.	.	.
8C/L	.	8g/L	.	2b-X\	.	2ee\	.	2r	.	.
8C/	.	8g/	.	.	.	.	.	.	.	.
8C/	.	8g/	.	.	.	.	.	.	.	.
8C/J	.	8g/J	.	.	.	.	.	.	.	.
!	!	!LO:LB:g=original	!	!	!	!	!	!LO:LB:g=original	!	!
=36	=36	=36	=36	=36	=36	=36	=36	=36	=36	=36
8C/L	.	8g/L	.	8b-\L	.	(16ee\LL	.	00r	.	.
.	.	.	.	.	.	16ff\JJ)	.	.	.	.
8C/	.	8g/	.	8b-\	.	4gg\	.	.	.	.
8C/	.	8g/	.	8b-\	.	.	.	.	.	.
8C/J	.	8g/J	.	8b-\J	.	8b-\	.	.	.	.
!	!	!	!	!	!	!LO:LB:g=original	!	!	!	!
.	.	.	.	(16qqb-/LL	.	(16qqb-/LL	.	.	.	.
.	.	.	.	16qqcc/JJ)	.	16qqcc/JJ)	.	.	.	.
8C/L	.	8g/L	.	2dd\	.	[4dd\	.	.	.	.
8C/	.	8f/	.	.	.	.	.	.	.	.
8C/	.	8f/	.	.	.	8dd\L]	.	.	.	.
8D/J	.	8f/J	.	.	.	(16cc\L	.	.	.	.
.	.	.	.	.	.	16bn\JJ)	.	.	.	.
=37	=37	=37	=37	=37	=37	=37	=37	=37	=37	=37
!	!	!	!	!LO:TX:a:t=P:problem: mixed beam	!	!LO:TX:a:t=SIC:s=8qbn	!	!	!	!
.	.	.	.	.	.	8qqb-/	.	.	.	.
8C/L	.	8e/L	.	8ee\L	.	[2cc\	.	.	.	.
8C/	.	8e/	.	8g/	.	.	.	.	.	.
8C/	.	8e/	.	8g/	.	.	.	.	.	.
8C/J	.	8e/J	.	8g/J	.	.	.	.	.	.
!	!	!	!	!LO:TX:a:t=P:problem: mixed beam	!	!	!	!	!	!
8C/L	.	8e/L	.	8g/L	.	8cc\L]	.	.	.	.
8C/	.	8e/	.	8g/	.	8b-X\J	.	.	.	.
8C/	.	8e/	.	8g/	.	8gg\L	.	.	.	.
8C/J	.	8g/J	.	8ee\J	.	8b-\J	.	.	.	.
!LO:LB:g=original	!	!	!	!	!	!	!	!	!	!
=38	=38	=38	=38	=38	=38	=38	=38	=38	=38	=38
4F\	.	4f/	.	4ff\	.	(32a\KLL	.	.	.	.
.	.	.	.	.	.	16.cc\)	.	.	.	.
.	.	.	.	.	.	(32ff\K	.	.	.	.
.	.	.	.	.	.	16.gg\JJ)	.	.	.	.
4r	.	4r	.	4r	.	[4aa\	.	.	.	.
2F\	.	2a/	.	2dd\	.	8aa\L]	.	.	.	.
.	.	.	.	.	.	8gg\	.	.	.	.
.	.	.	.	.	.	8qqee/	.	.	.	.
.	.	.	.	.	.	8dd\	.	.	.	.
.	.	.	.	.	.	8cc\J	.	.	.	.
!	!	!	!	!LO:LB:g=original	!	!	!	!	!	!
=39	=39	=39	=39	=39	=39	=39	=39	=39	=39	=39
8G\L	.	4g/	.	8dd\L	.	8bn\L	.	.	.	.
.	.	.	.	(16qqff/LL	.	(16qqff/LL	.	.	.	.
.	.	.	.	16qqgg/JJ)	.	16qqgg/JJ)	.	.	.	.
8F\	.	.	.	8aa\	.	8aa\	.	.	.	.
8E\	.	8r	.	8gg\	.	8gg\	.	.	.	.
8D\J	.	8g/	.	8ff\J	.	8ff\J	.	.	.	.
4C/	.	2g/	.	4ee\	.	4ee\	.	.	.	.
!LO:TX:a:t=P:problem: mixed beam	!	!	!	!	!	!	!	!	!	!
8G\L	.	.	.	4ddT\	.	4ddT\	.	.	.	.
8GG/J	.	.	.	.	.	.	.	.	.	.
=40	=40	=40	=40	=40	=40	=40	=40	=40	=40	=40
4C/	.	4e/	.	4cc\	.	4ccT\	.	2r	.	.
4r	.	4r	.	4r	.	4r	.	.	.	.
!	!	!	!	!	!	!	!LO:DY:t=piano	!	!	!
2r	.	2r	.	2r	.	4g/	p	4g\	Cu-	Ni-
.	.	.	.	.	.	8g/L	.	8g\	-jus	-miſ
.	.	.	.	.	.	8g/J	.	8g\	ex-	fe-
=41	=41	=41	=41	=41	=41	=41	=41	=41	=41	=41
.	.	.	.	.	.	8qqbn/	.	8qqbn/	.	.
!	!LO:DY:t=piano	!	!LO:DY:t=piano	!	!LO:DY:t=piano	!	!	!	!	!
8C/L	p	8g/L	p	8cc\L	p	8cc\L	.	4cc\	-cel-	-li-
8C/	.	8g/	.	8cc\	.	8ee\	.	.	.	.
8C/	.	8g/	.	8cc\	.	8ee\	.	4cc,\	-sos	-ces,
!	!	!	!	!	!	!LO:TX:b:t=verte cito.	!	!	!	!
!	!	!	!	!	!	!LO:TX:a:t=SIC:custos cc	!	!	!	!
8C/J	.	8g/J	.	8cc\J	.	8ee\J	.	.	.	.
!	!	!	!	!	!	!LO:PB:g=original	!	!	!	!
4C/	.	4g/	.	4ee\	.	8cc\L	.	8cc\	ca-	o!
.	.	.	.	.	.	8bn\	.	8bn\	-ni-	ni-
8r	.	8r	.	8r	.	8gg\	.	8.gg\	-mus	-miſ
8C/	.	8g/	.	8b-\	.	[8ee\J	.	.	.	.
.	.	.	.	.	.	.	.	16b-X\	Tri-	Be-
=42	=42	=42	=42	=42	=42	=42	=42	=42	=42	=42
.	.	.	.	8qqcc/	.	.	.	8qqcc/	.	.
8C\L	.	8g`/L	.	8b-\L	.	8ee\L]	.	8b-\	-um-	-a-
8F\J	.	8f`/J	.	8a\J	.	8ff`\J	.	8a\	-phos,	-ti,
4r	.	4r	.	4r	.	4r	.	4r	.	.
8F\L	.	2f/	.	2a/	.	4dd\	.	4dd\	hac	Cae-
8F\	.	.	.	.	.	.	.	.	.	.
8F\	.	.	.	.	.	8ff\L	.	8ff\	di-	-le-
.	.	.	.	.	.	8qqee/	.	.	.	.
8F\J	.	.	.	.	.	8dd\J	.	8dd\	-e	-sti
=43	=43	=43	=43	=43	=43	=43	=43	=43	=43	=43
.	.	.	.	.	.	8qqcc/	.	8qqcc/	.	.
8F\L	.	8f/L	.	2g/	.	4bn\	.	4bn\	An-	Cho-
8G\	.	8g/	.	.	.	.	.	.	.	.
!	!	!	!	!	!	!	!	!LO:TX:a:t=SIC: custos dd	!	!
8E\	.	8e/	.	.	.	4cc\	.	4cc\	-na	-ro
8C\J	.	8c/J	.	.	.	.	.	.	.	.
!	!	!	!	!	!	!LO:TX:a:t=P:problem: mixed beam	!	!LO:LB:g=original	!	!
[2BBn/	.	4r	.	2g/	.	8dd/L	.	8.dd\	me-	jam
.	.	.	.	.	.	8f/	.	.	.	.
.	.	.	.	.	.	.	.	16f/	-ru-	an-
.	.	4d/	.	.	.	8f/	.	8f/	-it	-nu
.	.	.	.	.	.	8f/J	.	8f/	pe-	me-
=44	=44	=44	=44	=44	=44	=44	=44	=44	=44	=44
8BB/L]	.	8d/L	.	4g/	.	8f/L	.	8f/	-ren-	-ra-
8C`/J	.	8c/J	.	.	.	8e/J	.	8e/	-nis	-ti
4r	.	4r	.	4r	.	4r	.	4r	.	.
8r	.	8r	.	2r	.	4dd\	.	4dd\	gau-	Psal-
!	!	!LO:LB:g=original	!	!	!	!	!	!	!	!
8F\L	.	4a/	.	.	.	.	.	.	.	.
8G\	.	.	.	.	.	(8cc\L	.	8cc\	-di-	-len-
8G\J	.	8d/	.	.	.	8bn\J)	.	8bn\	-a	-tes
!LO:LB:g=original	!	!	!	!	!	!	!	!	!	!
=45	=45	=45	=45	=45	=45	=45	=45	=45	=45	=45
!	!	!	!	!	!	!LO:TX:a:t=SIC:s=8qbn	!	!LO:TX:a:t=SIC:8qbn	!	!
.	.	.	.	.	.	8qqb-/	.	8qqb-/	.	.
4C\	.	4e/	.	2r	.	4.cc\	.	4.cc\	gau-	car-
8D\L	.	8f/L	.	.	.	.	.	.	.	.
8E\J	.	8g/J	.	.	.	8b-X\	.	16b-X\	-di-	-mi-
.	.	.	.	.	.	.	.	16b-\	-a	-na
8F\L	.	8f/L	.	8r	.	2a\	.	4.a\	Vi-	Vi-
8F\	.	8f/	.	8d/L	.	.	.	.	.	.
8F\	.	8f/	.	8d/	.	.	.	.	.	.
8BBn\J	.	8f/J	.	8d/J	.	.	.	(16g/LL	.	.
.	.	.	.	.	.	.	.	16f/JJ)	.	.
=46	=46	=46	=46	=46	=46	=46	=46	=46	=46	=46
.	.	.	.	.	.	.	.	8qqa/	.	.
8r	.	8r	.	8r	.	2gT/	.	2gT/	.	.
!LO:TX:a:t=P:problem: mixed beam	!	!	!	!	!	!	!	!	!	!
8c\L	.	8c/L	.	8e/L	.	.	.	.	.	.
8c\	.	8c/	.	8e/	.	.	.	.	.	.
8C/J	.	8c/J	.	8e/J	.	.	.	.	.	.
!	!	!	!	!LO:TX:a:t=P:problem: mixed beam	!	!	!	!	!	!
4F\	.	4c/	.	8f/L	.	8f/	.	4f/	-tae.	-tae.
!	!	!	!	!	!LO:DY:t=fort.	!	!LO:DY:t=fort	!	!	!
.	.	.	.	8dd\	f	8dd`\L	f	.	.	.
8r	.	8r	.	8ee\	.	8ee`\	.	4r	.	.
!	!LO:DY:t=forte	!	!LO:DY:t=for.	!	!	!	!	!	!	!
8F\	f	8a/	f	8ff\J	.	8ff`\J	.	.	.	.
=47	=47	=47	=47	=47	=47	=47	=47	=47	=47	=47
!	!	!	!	!	!	!	!	!LO:TX:a:t=6	!	!
4.G\	.	8bn`\L	.	8bn`\L	.	8bn`\L	.	00r	.	.
.	.	(8dd\	.	(8ff\	.	(8ff\	.	.	.	.
.	.	8cc\	.	8ee\	.	8ee\	.	.	.	.
!	!	!	!	!LO:TX:a:t=SIC:custos ee	!	!	!	!	!	!
8Bn\	.	8b\J)	.	8dd\J)	.	8dd\J)	.	.	.	.
!	!	!	!	!LO:LB:g=original	!	!	!	!	!	!
4c\	.	8cc\L	.	4ee\	.	4ee\	.	.	.	.
.	.	8g\J	.	.	.	.	.	.	.	.
8r	.	4r	.	8r	.	(16b-X\LL	.	.	.	.
.	.	.	.	.	.	16ee\)	.	.	.	.
8C/	.	.	.	8g/	.	(16gg\	.	.	.	.
.	.	.	.	.	.	16b-\JJ)	.	.	.	.
!	!	!	!	!	!	!LO:LB:g=original	!	!	!	!
=48	=48	=48	=48	=48	=48	=48	=48	=48	=48	=48
4F\	.	2r	.	8f/L	.	4a/	.	.	.	.
.	.	.	.	8c/J	.	.	.	.	.	.
4r	.	.	.	4r	.	(16a-X\LL	.	.	.	.
.	.	.	.	.	.	16cc\)	.	.	.	.
.	.	.	.	.	.	(16ff\	.	.	.	.
.	.	.	.	.	.	16cc\JJ)	.	.	.	.
8r	.	8r	.	8r	.	8dd\L	.	.	.	.
16D/LL	.	16d/LL	.	16dd\LL	.	16ff\L	.	.	.	.
16D/JJ	.	16d/JJ	.	16dd\JJ	.	16ff\JJ	.	.	.	.
8C/L	.	8c/L	.	8dd\L	.	8ff\L	.	.	.	.
[8BBn/J	.	[8Bn/J	.	8dd\J	.	8ff\J	.	.	.	.
=49	=49	=49	=49	=49	=49	=49	=49	=49	=49	=49
8BB/L]	.	8B/L]	.	8dd\L	.	8ff\L	.	.	.	.
8C`/J	.	8c`/J	.	8cc\J	.	8ee\J	.	.	.	.
4r	.	4r	.	4r	.	[4bb-\	.	.	.	.
[2C/	.	4e/	.	8bb-`\L	.	8bb-\L]	.	.	.	.
.	.	.	.	(32gg\LL	.	(32gg\LL	.	.	.	.
.	.	.	.	32ff\	.	32ff\	.	.	.	.
.	.	.	.	32ee\	.	32ee\	.	.	.	.
.	.	.	.	32dd\JJJ)	.	32dd\JJJ)	.	.	.	.
.	.	[4g/	.	8cc`\L	.	8cc`\L	.	.	.	.
.	.	.	.	8bn`\J	.	8bn`\J	.	.	.	.
=50	=50	=50	=50	=50	=50	=50	=50	=50	=50	=50
!LO:TX:a:t=P:problem: mixed beam	!	!	!	!	!	!	!	!	!	!
8C/L]	.	8g/L]	.	8b-X`/L	.	8b-X`\L	.	.	.	.
8F`\J	.	8f`/J	.	8a`/J	.	8a`\J	.	.	.	.
4r	.	4r	.	[4ff\	.	[4ff\	.	.	.	.
!LO:TX:a:t=SIC:custos C	!	!	!	!	!	!	!	!	!	!
!LO:TX:b:t=verte	!	!	!	!	!	!	!	!	!	!
2BB-X/	.	2d/	.	8ff\L]	.	8ff\L]	.	.	.	.
.	.	.	.	(32dd\LL	.	(32dd\LL	.	.	.	.
.	.	.	.	32cc\	.	32cc\	.	.	.	.
.	.	.	.	32b-\	.	32b-\	.	.	.	.
.	.	.	.	32a\JJJ)	.	32a\JJJ)	.	.	.	.
.	.	.	.	8g/L	.	8g/L	.	.	.	.
.	.	.	.	[8f/J	.	[8f/J	.	.	.	.
!LO:PB:g=original	!	!	!	!	!	!	!	!	!	!
=51	=51	=51	=51	=51	=51	=51	=51	=51	=51	=51
4C/	.	4c/	.	8f/L]	.	8f/L]	.	0r	.	.
.	.	.	.	8e`/J	.	8e`/J	.	.	.	.
16r	.	16r	.	16r	.	16r	.	.	.	.
16G`\LL	.	16g`/LL	.	16g`/LL	.	16g`/LL	.	.	.	.
16A`\	.	16a`/	.	16a`/	.	16a`/	.	.	.	.
16Bn`\JJ	.	16bn`/JJ	.	16bn`/JJ	.	16bn`/JJ	.	.	.	.
!LO:TX:a:t=P:problem: mixed beam	!	!LO:TX:a:t=P:problem: mixed beam	!	!LO:TX:a:t=P:problem: mixed beam	!	!LO:TX:a:t=P:problem: mixed beam	!	!	!	!
!	!	!LO:LB:g=original	!	!	!	!	!	!	!	!
8c\L	.	8cc/L	.	8cc\L	.	8cc\L	.	.	.	.
8C/J	.	8c/J	.	8c/J	.	8c/J	.	.	.	.
4r	.	4r	.	4b-X/	.	4b-X\	.	.	.	.
=52	=52	=52	=52	=52	=52	=52	=52	=52	=52	=52
!	!	!	!	!	!	!	!	!LO:TX:a:t=SIC:custos cc	!	!
4r	.	2r	.	4a/	.	2a/	.	.	.	.
8r	.	.	.	[4f/	.	.	.	.	.	.
8F\	.	.	.	.	.	.	.	.	.	.
!LO:TX:a:t=P:problem: mixed beam	!	!	!	!	!	!	!	!	!	!
8c\L	.	2c/	.	4.f/]	.	2gT/	.	.	.	.
8B-X\	.	.	.	.	.	.	.	.	.	.
8c\	.	.	.	.	.	.	.	.	.	.
8C/J	.	.	.	8e/	.	.	.	.	.	.
!	!	!	!	!	!	!	!	!LO:LB:g=original	!	!
=53	=53	=53	=53	=53	=53	=53	=53	=53	=53	=53
8F\L	.	4c/	.	4f/	.	4f/	.	2r	.	.
8C\J	.	.	.	.	.	.	.	.	.	.
4FF/	.	4r	.	4r	.	4r	.	.	.	.
!	!LO:DY:t=piano	!	!LO:DY:t=piano	!	!LO:DY:t=piano	!	!LO:DY:t=piano	!	!	!
8F\L	p	8c/L	p	8a/L	p	4cc\	p	4cc\	hac	Ni-
8F\	.	8c/	.	8a/	.	.	.	.	.	.
.	.	.	.	.	.	8qqee/	.	.	.	.
8F\	.	8c/	.	8a/	.	8ff\L	.	8ff\	di-	-miſ
!	!	!	!	!LO:TX:b:t=verte	!	!	!	!	!	!
8F\J	.	8c/J	.	8a/J	.	8ff\J	.	8ff\	-e	fe-
!	!	!	!	!LO:PB:g=original	!	!LO:LB:g=original	!	!	!	!
=54	=54	=54	=54	=54	=54	=54	=54	=54	=54	=54
.	.	.	.	.	.	8qqgg/	.	.	.	.
8C/L	.	8c/L	.	8a/L	.	4ff\	.	4ff\	An-	-li-
8C/	.	8c/	.	8g/	.	.	.	.	.	.
8C/	.	8c/	.	8g/	.	4ee\	.	4ee\	-na	-ces,
8C/J	.	8c/J	.	8g/J	.	.	.	.	.	.
8C\L	.	8e/L	.	8g/L	.	8.gg\L	.	8.gg\	me-	ach
8C\	.	8e/	.	8g/	.	.	.	.	.	.
.	.	.	.	.	.	(32dd\LL	.	16b-\	-ru-	ni-
.	.	.	.	.	.	32b-\JJJ)	.	.	.	.
8C\	.	8e/	.	8g/	.	8g/L	.	8b-\	-it	-miſ
8E\J	.	8e/J	.	8g/J	.	8b-/J	.	8b-\	pe-	Be-
=55	=55	=55	=55	=55	=55	=55	=55	=55	=55	=55
.	.	.	.	.	.	8qqcc/	.	8qqcc/	.	.
8E\L	.	8c/L	.	8g/L	.	8b-/L	.	8b-\	-ren-	-a-
8F\	.	8c/	.	8a/	.	8a/J	.	8a\	-nis,	-ti,
8F\	.	8c/	.	8a/	.	4r	.	4r	.	.
8F\J	.	8c/J	.	8a/J	.	.	.	.	.	.
8F\L	.	8f/L	.	8b-\L	.	4.dd\	.	4.dd\	me-	fru-
8F\	.	8f/	.	8b-\	.	.	.	.	.	.
8F\	.	8f/	.	8b-\	.	.	.	.	.	.
8F\J	.	8f/J	.	8b-\J	.	(16cc\LL	.	(16cc\LL	-ru-	.
.	.	.	.	.	.	16b-\JJ)	.	16b-\JJ)	.	.
=56	=56	=56	=56	=56	=56	=56	=56	=56	=56	=56
8F\L	.	8f/L	.	8a/L	.	2a/	.	2a\	-it	-en-
8F\	.	8f/	.	8a/	.	.	.	.	.	.
8F\	.	8f/	.	8a/	.	.	.	.	.	.
!LO:TX:a:t=SIC: custos F	!	!	!	!	!	!	!	!	!	!
8F\J	.	8f/J	.	8a/J	.	.	.	.	.	.
!LO:LB:g=original	!	!	!	!	!	!	!	!	!	!
8F\L	.	8f/L	.	8a/L	.	2ff\	.	[2ff\	San-	.
8F\	.	8f/	.	8a/	.	.	.	.	.	.
8F\	.	8f/	.	8a/	.	.	.	.	.	.
8F\J	.	8f/J	.	8a/J	.	.	.	.	.	.
=57	=57	=57	=57	=57	=57	=57	=57	=57	=57	=57
!	!	!LO:TX:a:t=P:problem: mixed beam	!	!	!	!	!	!	!	!
8F\L	.	8f/L	.	8a/L	.	2ff\	.	2ff\]	.	.
8c\	.	8cc\	.	8a/	.	.	.	.	.	.
8c\	.	8cc\	.	8a/	.	.	.	.	.	.
8c\J	.	8cc\J	.	8a/J	.	.	.	.	.	.
8c\L	.	8cc\L	.	8g/L	.	2ee\	.	2ee\	-cta	.
8c\	.	8cc\	.	8g/	.	.	.	.	.	.
8c\	.	8cc\	.	8g/	.	.	.	.	.	.
8c\J	.	8cc\J	.	8g/J	.	.	.	.	.	.
=58	=58	=58	=58	=58	=58	=58	=58	=58	=58	=58
!	!	!	!	!LO:TX:a:t=P:problem: mixed beam	!	!	!	!	!	!
8Bn\L	.	8r	.	8g/L	.	2ff\	.	2ff\	An-	.
8B\	.	8g/L	.	8dd\	.	.	.	.	.	.
8B\	.	8g/	.	8dd\	.	.	.	.	.	.
8B\J	.	8g/J	.	8dd\J	.	.	.	.	.	.
2c;\	.	2g/	.	2cc;\	.	2ee;\	.	2ee;\	-na	-teſ
!	!	!	!	!	!	!	!	!LO:LB:g=original	!	!
=59	=59	=59	=59	=59	=59	=59	=59	=59	=59	=59
!	!	!LO:TX:b:t=verte	!	!	!	!	!	!	!	!
1r	.	1r	.	1r	.	8r	.	8r	.	.
.	.	.	.	.	.	8ff\L	.	8ff\	pe-	pe-
.	.	.	.	.	.	8dd\	.	8dd\	-ren-	-ren-
.	.	.	.	.	.	8qqcc/	.	.	.	.
.	.	.	.	.	.	8bn\J	.	8bn\	-nis	-nis
.	.	.	.	.	.	8qqb/	.	.	.	.
.	.	.	.	.	.	4cc\	.	4.cc\	gau-	gau-
.	.	.	.	.	.	4r	.	.	.	.
.	.	.	.	.	.	.	.	16cc\	-di-	-di-
.	.	.	.	.	.	.	.	16b-X\	-a	-a
!	!	!LO:LB:g=original	!	!	!	!	!	!	!	!
=60	=60	=60	=60	=60	=60	=60	=60	=60	=60	=60
2r	.	2r	.	2r	.	2r	.	4.a\	gau-	{gau-
.	.	.	.	.	.	.	.	16g/	-di-	-di-
.	.	.	.	.	.	.	.	16f/	-a	-a}
2C;/	.	2c;/	.	2c;/	.	4c;/	.	4a;\	Vi-	Vi-
.	.	.	.	.	.	4r	.	4gT\	.	.
=61	=61	=61	=61	=61	=61	=61	=61	=61	=61	=61
!	!	!	!	!LO:TX:a:t=P:problem: mixed beam	!	!LO:TX:a:t=P:problem: mixed beam	!	!	!	!
!LO:TX:a:t=Allegro forte	!LO:DY:a	!LO:TX:a:t=allegro	!	!LO:TX:a:t=Allegro	!	!LO:TX:a:t=allegro forte	!LO:DY:a	!LO:TX:a:t=allegro.	!	!
8F\	fyy	16a/LL	.	16f/LL	.	16f/LL	fyy	4f/	-tae.	-tae.
.	.	16a/	.	16ff\	.	16ff\	.	.	.	.
8F\L	.	16a/	.	16ff\	.	16ff\	.	.	.	.
.	.	16a/JJ	.	16ff\JJ	.	16ff\JJ	.	.	.	.
8A\	.	16a/LL	.	16ff\LL	.	16ff\LL	.	4r	.	.
.	.	16a/	.	16ff\	.	16ff\	.	.	.	.
8F\J	.	16a/	.	16ff\	.	16ff\	.	.	.	.
.	.	16a/JJ	.	16ff\JJ	.	16ff\JJ	.	.	.	.
8c\	.	16g/LL	.	16ee\LL	.	16ee\LL	.	2r	.	.
.	.	16g/	.	16gg\	.	16gg\	.	.	.	.
4C/	.	16g/	.	16gg\	.	16gg\	.	.	.	.
.	.	16g/JJ	.	16gg\JJ	.	16gg\JJ	.	.	.	.
.	.	16g/LL	.	16gg\LL	.	16gg\LL	.	.	.	.
.	.	16g/	.	16b-\	.	16b-\	.	.	.	.
8E\	.	16g/	.	16b-\	.	16b-\	.	.	.	.
.	.	16g/JJ	.	16b-\JJ	.	16b-\JJ	.	.	.	.
!	!	!	!	!LO:LB:g=original	!	!LO:LB:g=original	!	!	!	!
=62	=62	=62	=62	=62	=62	=62	=62	=62	=62	=62
!	!LO:DY:t=piano	!	!LO:DY:t=piano	!	!	!	!	!LO:TX:a:t=6.	!	!
4F\	p	16a/LL	p	16a\LL	.	16a\LL	p	00r	.	.
!	!	!	!	!	!LO:DY:t=piano	!	!	!	!	!
.	.	16a/	.	16ff\	p	16ff\	.	.	.	.
.	.	16a/	.	16ff\	.	16ff\	.	.	.	.
.	.	16a/JJ	.	16ff\JJ	.	16ff\JJ	.	.	.	.
8r	.	16a/LL	.	16ff\LL	.	16ff\LL	.	.	.	.
.	.	16a/	.	16ff\	.	16ff\	.	.	.	.
8F\	.	16a/	.	16ff\	.	16ff\	.	.	.	.
.	.	16a/JJ	.	16ff\JJ	.	16ff\JJ	.	.	.	.
4c\	.	16g/LL	.	16ee\LL	.	16ee\LL	.	.	.	.
.	.	16g/	.	16gg\	.	16gg\	.	.	.	.
.	.	16g/	.	16gg\	.	16gg\	.	.	.	.
.	.	16g/JJ	.	16gg\JJ	.	16gg\JJ	.	.	.	.
8r	.	16g/LL	.	16gg\LL	.	16gg\LL	.	.	.	.
.	.	16g/	.	16b-\	.	16b-\	.	.	.	.
8C/	.	16g/	.	16b-\	.	16b-\	.	.	.	.
.	.	16g/JJ	.	16b-\JJ	.	16b-\JJ	.	.	.	.
!LO:LB:g=original	!	!	!	!	!	!	!	!	!	!
=63	=63	=63	=63	=63	=63	=63	=63	=63	=63	=63
!	!LO:DY:t=forte	!	!LO:DY:t=fort.	!	!	!	!LO:DY:t=fort.	!	!	!
8F\L	f	8a/L	f	16a\LL	.	16a\LL	f	.	.	.
!	!	!	!	!	!LO:DY:t=fort.	!	!	!	!	!
.	.	.	.	16ff\	f	16ff\	.	.	.	.
8F\	.	8a/	.	16ff\	.	16ff\	.	.	.	.
.	.	.	.	16ff\JJ	.	16ff\JJ	.	.	.	.
!	!	!	!	!LO:TX:a:t=P:problem: mixed beam	!	!LO:TX:a:t=P:problem: mixed beam	!	!	!	!
8E\	.	8g/	.	16ff\LL	.	16ff\LL	.	.	.	.
.	.	.	.	16f/	.	16f/	.	.	.	.
8E\J	.	8g/J	.	16f/	.	16f/	.	.	.	.
.	.	.	.	16f/JJ	.	16f/JJ	.	.	.	.
!	!	!	!	!LO:TX:a:t=P:problem: mixed beam	!	!LO:TX:a:t=P:problem: mixed beam	!	!	!	!
8D/L	.	8f/L	.	16f/LL	.	16f/LL	.	.	.	.
.	.	.	.	16ff\	.	16ff\	.	.	.	.
8D/	.	8f/	.	16ff\	.	16ff\	.	.	.	.
.	.	.	.	16ff\JJ	.	16ff\JJ	.	.	.	.
!	!	!	!	!LO:TX:a:t=P:problem: mixed beam	!	!LO:TX:a:t=P:problem: mixed beam	!	!	!	!
8C/	.	8e/	.	16ff\LL	.	16ff\LL	.	.	.	.
.	.	.	.	16f/	.	16f/	.	.	.	.
8AA/J	.	8c/J	.	16f/	.	16f/	.	.	.	.
.	.	.	.	16f/JJ	.	16f/JJ	.	.	.	.
!	!	!	!	!LO:LB:g=original	!	!	!	!	!	!
=64	=64	=64	=64	=64	=64	=64	=64	=64	=64	=64
2r	.	2r	.	16ff\LL	.	16ff\LL	.	.	.	.
.	.	.	.	16aa\	.	16aa\	.	.	.	.
.	.	.	.	16gg\	.	16gg\	.	.	.	.
.	.	.	.	16ff\JJ	.	16ff\JJ	.	.	.	.
.	.	.	.	16ee\LL	.	16ee\LL	.	.	.	.
.	.	.	.	16dd\	.	16dd\	.	.	.	.
.	.	.	.	16cc\	.	16cc\	.	.	.	.
.	.	.	.	16b-\JJ	.	16b-\JJ	.	.	.	.
!LO:TX:a:t=P:problem: mixed beam	!	!LO:TX:a:t=P:problem: mixed beam	!	!LO:TX:a:t=P:problem: mixed beam	!	!LO:TX:a:t=P:problem: mixed beam	!	!	!	!
8A`\L	.	8a`\L	.	8a`\L	.	8a`\L	.	.	.	.
8Bn`\	.	8bn`\	.	8bn`\	.	8bn`\	.	.	.	.
8c`\	.	8cc`\	.	8cc`\	.	8cc`\	.	.	.	.
8C`/J	.	8c`/J	.	8c`/J	.	8c`/J	.	.	.	.
!	!	!LO:LB:g=original	!	!	!	!	!	!	!	!
=65	=65	=65	=65	=65	=65	=65	=65	=65	=65	=65
!	!LO:DY:t=piano	!	!LO:DY:t=piano	!LO:TX:a:t=P:problem: mixed beam	!LO:DY:t=piano	!LO:TX:a:t=P:problem: mixed beam	!LO:DY:t=piano.	!	!	!
8F\L	p	8a/L	p	16f\LL	p	16f/LL	p	.	.	.
.	.	.	.	16ff\	.	16ff\	.	.	.	.
8F\	.	8a/	.	16ff\	.	16ff\	.	.	.	.
.	.	.	.	16ff\JJ	.	16ff\JJ	.	.	.	.
!	!	!	!	!LO:TX:a:t=P:problem: mixed beam	!	!LO:TX:a:t=P:problem: mixed beam	!	!	!	!
8E\	.	8g/	.	16ff\LL	.	16ff\LL	.	.	.	.
.	.	.	.	16f\	.	16f/	.	.	.	.
8E\J	.	8g/J	.	16f\	.	16f/	.	.	.	.
.	.	.	.	16f\JJ	.	16f/JJ	.	.	.	.
!	!	!	!	!LO:TX:a:t=P:problem: mixed beam	!	!LO:TX:a:t=P:problem: mixed beam	!	!	!	!
8D/L	.	8f/L	.	16f\LL	.	16f/LL	.	.	.	.
.	.	.	.	16ff\	.	16ff\	.	.	.	.
8D/	.	8f/	.	16ff\	.	16ff\	.	.	.	.
.	.	.	.	16ff\JJ	.	16ff\JJ	.	.	.	.
!	!	!	!	!LO:TX:a:t=P:problem: mixed beam	!	!LO:TX:a:t=P:problem: mixed beam	!	!	!	!
8C/	.	8e/	.	16ff\LL	.	16ff\LL	.	.	.	.
.	.	.	.	16f\	.	16f/	.	.	.	.
8AA/J	.	8c/J	.	16f\	.	16f/	.	.	.	.
.	.	.	.	16f\JJ	.	16f/JJ	.	.	.	.
=66	=66	=66	=66	=66	=66	=66	=66	=66	=66	=66
!	!	!	!	!	!LO:DY:t=fort.	!	!LO:DY:t=fort.	!	!	!
2r	.	2r	.	16ff\LL	f	16ff\LL	f	1r	.	.
.	.	.	.	16aa\	.	16aa\	.	.	.	.
.	.	.	.	16gg\	.	16gg\	.	.	.	.
.	.	.	.	16ff\JJ	.	16ff\JJ	.	.	.	.
.	.	.	.	16ee\LL	.	16ee\LL	.	.	.	.
.	.	.	.	16dd\	.	16dd\	.	.	.	.
.	.	.	.	16cc\	.	16cc\	.	.	.	.
!	!	!	!	!	!	!LO:TX:a:t=SIC: custos a	!	!	!	!
.	.	.	.	16b-\JJ	.	16b-\JJ	.	.	.	.
!LO:TX:a:t=P:problem: mixed beam	!LO:DY:t=forte	!LO:TX:a:t=P:problem: mixed beam	!LO:DY:t=fort.	!LO:TX:a:t=P:problem: mixed beam	!	!LO:TX:a:t=P:problem: mixed beam	!	!	!	!
8A\L	f	8a`\L	f	8a`\L	.	8a`\L	.	.	.	.
8Bn\	.	8bn`\	.	8bn`\	.	8bn`\	.	.	.	.
8c\	.	8cc`\	.	8cc`\	.	8cc`\	.	.	.	.
8C/J	.	8c`\J	.	8c`/J	.	8c`\J	.	.	.	.
=67	=67	=67	=67	=67	=67	=67	=67	=67	=67	=67
4F\	.	4f/	.	4f/	.	4f/	.	1ryy;	.	.
4r	.	4r	.	4r	.	4r	.	.	.	.
2r;;	.	2r;;	.	2r;;	.	2r;;	.	.	.	.
=68||	=68||	=68||	=68||	=68||	=68||	=68||	=68||	=68||	=68||	=68||
!LO:TX:a:t=adagio piano	!LO:DY:a	!LO:TX:a:t=adagio piano.	!LO:DY:a	!LO:TX:a:t=adagio	!LO:DY:t=piano	!LO:TX:a:t=adagio	!LO:DY:t=piano	!	!	!
8F\L	pyy	8f/L	pyy	8a/L	p	4cc\	p	4cc\	Er-	Ach,
8F\	.	8f/	.	8a/	.	.	.	.	.	.
.	.	.	.	.	.	8qqee/	.	.	.	.
8F\	.	8f/	.	8a/	.	8ff\L	.	8ff\	-go	ach
!	!	!	!	!	!	!	!	!LO:TX:a:t=SIC: custos ff	!	!
!	!	!	!	!	!	!	!	!LO:TX:b:t=Vertatur	!	!
8F\J	.	8f/J	.	8a/J	.	8ff\J	.	8ff\	re-	fe-
!	!	!	!	!	!	!	!	!LO:PB:g=original	!	!
8c\L	.	8cc\L	.	8g/L	.	4ffT\	.	4ff\	-gnan-	-li-
8c\	.	8cc\	.	8g/	.	.	.	.	.	.
8c\	.	8cc\	.	8g/	.	8ee\L	.	8ee\	-tem	-ces,
8c\J	.	8cc\J	.	8g/J	.	8gg\J	.	8gg\	cum	ach
!LO:LB:g=original	!	!	!	!	!	!	!	!	!	!
=69	=69	=69	=69	=69	=69	=69	=69	=69	=69	=69
!	!	!	!	!LO:TX:a:t=P:problem: mixed beam	!	!	!	!LO:N:vis=8.	!	!
!	!	!	!	!LO:TX:a:t=adagio	!	!	!	!LO:TX:a:t=P:problem: ósemka z kropką	!	!
8c\L	.	8cc\L	.	8g/L	.	4gg\	.	8gg\	Ie-	ach
8c\	.	8cc\	.	8ee\	.	.	.	8b-\	-su	om-
8c\	.	8cc\	.	8ee\	.	8b-\L	.	8b-\	et	-nes
8c\J	.	8cc\J	.	8ee\J	.	8b-\J	.	8b-\	Ma-	Be-
!LO:TX:a:t=P:problem: mixed beam	!	!	!	!	!	!	!	!	!	!
.	.	.	.	.	.	8qqcc/	.	8qqcc/	.	.
8C/L	.	8cc\L	.	8ff\L	.	8b-/L	.	8b-\	-ri-	-a-
8F\	.	8cc\	.	8ff\	.	8a/J	.	8a\	-a	-ti,
8F\	.	8cc\	.	8ff\	.	4r	.	4r	.	.
8F\J	.	8cc\J	.	8ff\J	.	.	.	.	.	.
=70	=70	=70	=70	=70	=70	=70	=70	=70	=70	=70
2r	.	2r	.	2r	.	8cc#X`\L	.	2cc#X\	San-	nos-
.	.	.	.	.	.	(8gg\	.	.	.	.
.	.	.	.	.	.	8ff\	.	.	.	.
.	.	.	.	.	.	8ee\J)	.	.	.	.
.	.	.	.	.	.	.	.	8qqcc#/	.	.
8D\L	.	8f/L	.	8a/L	.	4dd\	.	4dd\	-ctam	-tras
8D\	.	8f/	.	8a/	.	.	.	.	.	.
8D\	.	8f/	.	8a/	.	4r	.	4r	.	.
8D\J	.	8f/J	.	8a/J	.	.	.	.	.	.
=71	=71	=71	=71	=71	=71	=71	=71	=71	=71	=71
2r	.	2r	.	2r	.	8cc#X`\L	.	2cc#X\	An-	Ve-
.	.	.	.	.	.	(8gg\	.	.	.	.
.	.	.	.	.	.	8ff\	.	.	.	.
.	.	.	.	.	.	8ee\J)	.	.	.	.
!	!	!LO:TX:a:t=P:problem: mixed beam	!	!	!	!	!	!	!	!
8D\L	.	8f/L	.	8a/L	.	4dd\	.	4dd\	-nam	-stris
8D\	.	8f/	.	8a/	.	.	.	.	.	.
8D\	.	8f/	.	8a/J	.	8r	.	8r	.	.
!	!	!	!	!	!	!	!	!LO:LB:g=original	!	!
8d`\J	.	8dd`\J	.	8dd`\	.	8dd`\	.	8dd`\	fla-	con-
=72	=72	=72	=72	=72	=72	=72	=72	=72	=72	=72
4d`\	.	4dd`\	.	4dd`\	.	4dd`\	.	4dd`\	-gi-	-jun-
8B-`\L	.	8b-`/L	.	8b-`/L	.	8b-`/L	.	8b-`\	-te-	-gi-
!	!	!LO:TX:a:t=SIC:custos a	!	!	!	!	!	!	!	!
8G`\J	.	8g`/J	.	8g`/J	.	8g`/J	.	8g`\	-mus	-te
!LO:TX:a:t=P:problem: mixed beam	!	!LO:LB:g=original	!	!LO:TX:a:t=P:problem: mixed beam	!	!LO:TX:a:t=P:problem: mixed beam	!	!	!	!
8A\L	.	8a`/L	.	8a`\L	.	8a`\L	.	8a`\	om-	vo-
8AA/J	.	8A`/J	.	8A`/J	.	8A/J	.	8a`\	-nes	-ces
!	!	!	!	!	!	!LO:TX:a:t=SIC:custos a	!	!	!	!
4r;	.	4r;	.	4r;	.	4r;	.	4r;	.	.
!	!	!	!	!LO:LB:g=original	!	!LO:LB:g=original	!	!	!	!
=73	=73	=73	=73	=73	=73	=73	=73	=73	=73	=73
4A\	.	4r	.	2r	.	8a/	.	8a\	ad-	prae-
.	.	.	.	.	.	4b-/	.	4b-\	.	.
8G\L	.	8c#X`/L	.	.	.	.	.	.	.	.
8F\J	.	8d`/J	.	.	.	4a/	.	4a\	.	.
4r	.	4d/	.	4f/	.	.	.	.	.	.
.	.	.	.	.	.	4dd\	.	4dd\	.	.
8D\L	.	8f`/L	.	8a/L	.	.	.	.	.	.
8A\J	.	8e`/J	.	8a/J	.	[8cc#X\	.	[8cc#X\	.	.
=74	=74	=74	=74	=74	=74	=74	=74	=74	=74	=74
2AA/	.	4a/	.	8r	.	8cc#\]	.	8cc#\]	.	.
.	.	.	.	4dd\	.	4ff\	.	4ff\	.	.
.	.	4r	.	.	.	.	.	.	.	.
.	.	.	.	8cc#X\	.	8ee\	.	8ee\	-ſit	.
!	!	!	!	!	!	!	!	!LO:LB:g=original	!	!
8D\L	.	8a`/L	.	8dd`\L	.	8ff\L	.	8ff\	An-	-can-
8A\J	.	8a`/J	.	8cc#X`\J	.	8ee\J	.	8ee\	-na	-tes
4r	.	4r	.	4r	.	4r	.	4r	.	.
!LO:LB:g=original	!	!	!	!	!	!	!	!	!	!
=75	=75	=75	=75	=75	=75	=75	=75	=75	=75	=75
4r	.	4r	.	4r	.	8r	.	8r	.	.
.	.	.	.	.	.	8dd\L	.	8dd\	cum	vo-
8r	.	8r	.	8r	.	8b-\	.	8b-\	Ie-	-bis-
8AA/	.	8c#X/	.	8e/	.	8g\J	.	8g/	-su	-cum
4D\	.	4d/	.	4.d/	.	4f/	.	8f/	et	ut
.	.	.	.	.	.	.	.	8f/	Ma-	post
!LO:TX:a:t=P:problem: mixed beam	!	!	!	!	!	!	!	!	!	!
8A\L	.	4a/	.	.	.	4et/	.	4et/	-ri-	fa-
8AA/J	.	.	.	8c#X/	.	.	.	.	.	.
=76	=76	=76	=76	=76	=76	=76	=76	=76	=76	=76
4D\	.	8a/	.	8d/	.	8d/	.	8d,/	-a	-ta
.	.	8r	.	8r	.	8r	.	8dd\	in	na-
4r	.	4r	.	4r	.	4r	.	8b-\	ho-	-na-
!	!	!	!	!	!	!	!	!LO:TX:a:t=SIC:custos a	!	!
.	.	.	.	.	.	.	.	8g\	-ra	-mus
!	!	!	!	!	!	!	!	!LO:LB:g=original	!	!
2r	.	2r	.	2r	.	2r	.	2a\	mor-	ex-
=77	=77	=77	=77	=77	=77	=77	=77	=77	=77	=77
1AA;	.	1A;	.	1A;	.	4A/	.	2a;\	.	-o-
.	.	.	.	.	.	4r	.	.	.	.
.	.	.	.	.	.	.	.	8qqff/	.	.
.	.	.	.	.	.	2r;	.	2eet\	.	-pta-
=78	=78	=78	=78	=78	=78	=78	=78	=78	=78	=78
!LO:TX:b:t=Dacapo usque ad \n signum Finis	!	!LO:TX:b:t=Dacapo usque sign. Finis	!	!LO:TX:b:t=Dacapo usque sign. Finis	!	!	!	!LO:TX:b:t=Dacapo usque ad Signu(m) Finis	!	!
!LO:TX:a:t=P:problem: podwójna fermata na końcu zdania	!	!LO:TX:a:t=P:problem: podwójna fermata na końcu zdania	!	!LO:TX:a:t=P:problem: podwójna fermata na końcu zdania	!	!	!	!LO:TX:a:t=P:problem: podwójna fermata na końcu zdania	!	!
1D	.	1d	.	1d	.	4d/	.	1dd	-tis.	-ta.
.	.	.	.	.	.	4r	.	.	.	.
!	!	!	!	!	!	!LO:TX:b:t=Dacapo.	!	!	!	!
.	.	.	.	.	.	2r	.	.	.	.
==	==	==	==	==	==	==	==	==;;	==	==
*-	*-	*-	*-	*-	*-	*-	*-	*-	*-	*-
!!!system-decoration: [(g1)][(g2)][(g3)]
!!!ENC: Anna Matuszewska
!!!END: 2020-10-27
!!!ENC: Krzysztof Stępień
!!!END: 2020-04-20
